packages/bezier-icons/icons/bear-filled.svg

<svg width="24" height="24" viewBox="0 0 24 24" fill="none" xmlns="http://www.w3.org/2000/svg">
<path fill-rule="evenodd" clip-rule="evenodd" d="M16.7552 3.00741C16.1059 3.0468 15.4857 3.24228 14.9406 3.57026L14.901 3.595L14.6252 3.49014C12.9132 2.87546 11.055 2.88574 9.36379 3.49468L9.09902 3.595L9.05851 3.56971C8.44521 3.20102 7.73746 3 7.00002 3C4.79088 3 3.00002 4.79086 3.00002 7L3.00644 7.22781C3.05338 8.05882 3.35596 8.83948 3.85771 9.47557L3.88502 9.509L2.85475 11.4601C2.41167 12.2982 2.18005 13.232 2.18005 14.18L2.18426 14.4033C2.29305 17.288 4.50142 19.6353 7.32537 19.9613L7.56902 19.984L7.8787 20.2929C8.97174 21.3859 10.4542 22 12 22L12.2721 21.9937C13.7189 21.9261 15.0926 21.3216 16.1213 20.2929L16.4297 19.9833C17.2473 19.9198 18.0176 19.6966 18.72 19.3253L18.9248 19.2118C21.6131 17.6517 22.6108 14.2324 21.1453 11.4601L20.114 9.509L20.1423 9.47557C20.6897 8.78166 21 7.91569 21 7C21 4.79086 19.2092 3 17 3L16.7552 3.00741ZM9.98432 10.5504C9.98432 12.0454 9.63132 12.6554 8.78632 12.6554C7.94132 12.6554 7.58732 12.0454 7.58732 10.5504C7.58732 9.0544 7.94132 8.4444 8.78632 8.4444C9.63132 8.4444 9.98432 9.0544 9.98432 10.5504ZM16.412 10.5504C16.412 12.0454 16.059 12.6554 15.214 12.6554C14.369 12.6554 14.015 12.0454 14.015 10.5504C14.015 9.0544 14.369 8.4444 15.214 8.4444C16.059 8.4444 16.412 9.0544 16.412 10.5504ZM11 12C10.4477 12 10 12.4477 10 13C10 13.5523 10.4477 14 11 14L10.9933 14.1166C10.9355 14.614 10.5129 15 10 15L9.8834 15.0067C9.38606 15.0645 9.00002 15.4872 9.00002 16C9.00002 16.5523 9.44773 17 10 17C10.7684 17 11.4693 16.7111 12 16.2361C12.5308 16.7111 13.2317 17 14 17C14.5523 17 15 16.5523 15 16C15 15.4872 14.614 15.0645 14.1166 15.0067L14 15C13.4872 15 13.0645 14.614 13.0067 14.1166L13 14C13.5523 14 14 13.5523 14 13C14 12.4477 13.5523 12 13 12H11Z" fill="#313234"/>
</svg>

<svg xmlns="http://www.w3.org/2000/svg" width="24" height="24" fill="none" viewBox="0 0 24 24"><path fill="#313234" fill-rule="evenodd" d="M16.755 3.007c-.65.04-1.27.235-1.814.563l-.04.025-.276-.105a7.77 7.77 0 0 0-5.261.005l-.265.1-.04-.025A4 4 0 0 0 3 7l.005.228c.047.83.35 1.611.852 2.248l.027.033-1.03 1.951a5.8 5.8 0 0 0-.675 2.72l.004.223a5.82 5.82 0 0 0 5.141 5.558l.244.023.31.309A5.83 5.83 0 0 0 12 22l.272-.006a5.83 5.83 0 0 0 3.85-1.701l.308-.31a5.8 5.8 0 0 0 2.29-.658l.205-.113a5.82 5.82 0 0 0 2.22-7.752L20.114 9.51l.028-.033A4 4 0 0 0 17 3zm-6.77 7.543c0 1.495-.354 2.105-1.199 2.105s-1.199-.61-1.199-2.105.354-2.106 1.2-2.106c.844 0 1.197.61 1.197 2.106m6.427 0c0 1.495-.353 2.105-1.198 2.105s-1.199-.61-1.199-2.105.354-2.106 1.199-2.106 1.198.61 1.198 2.106M11 12a1 1 0 1 0 0 2l-.007.117A1 1 0 0 1 10 15l-.117.007A1 1 0 0 0 10 17c.768 0 1.47-.289 2-.764A3 3 0 0 0 14 17a1 1 0 0 0 .117-1.993L14 15a1 1 0 0 1-.993-.883L13 14a1 1 0 1 0 0-2z" clip-rule="evenodd"/></svg>
